!!!SOCIAL_FUNCTION:	songs for the entertainment of children
!!!PDT:	1929
!!!OTL: No_162_Lullaby.krn
!!!REG: Southwest
!!!LANG: Non-Tone
!!!LING_GROUP: Uto-Aztecan
**kern
*staff1
*clefF4
*k[f#]
*M2/4
16G\
=1
4G\
8.B\L
16A\Jk
=2||
*M3/4
8B\L
16A\L
16A\JJ
8A\L
8A\J
8G\L
16G\L
16E\JJ
=3
(4G\
8E\)
8r
8E\L
8E\J
=4||
*M2/4
8A\L
16A\L
16G\JJ
8A\L
8A\J
=5
8G\L
16G\L
16E\JJ
4E\
=6||
*M3/4
8A\L
16G\L
16G\JJ
8A\L
16.G\L
32G\JJk
8.G\L
16E\Jk
=7
8G\L
8G\J
8E\
8r
8.r
16E\
=8||
*M2/4
4G\
4A\
=9||
*M3/4
8A\L
16A\L
16G\JJ
8A\L
16A\L
16G\JJ
8G\L
16G\L
16E\JJ
=10
8.G\L
16E\Jk
8E\
8r
8E\L
8E\J
=11||
*M2/4
8A\L
16A\L
16G\JJ
8A\L
16A\L
16G\JJ
=12
8G\L
16G\L
16E\JJ
4E\
=13||
*M3/4
8A\L
16G\L
16G\JJ
8A\L
16.G\L
32G\JJk
8.G\L
16E\Jk
=14
8G\L
16G\L
16E\JJ
8E\L
16E\Jk
16r
4r
==
*-
